X:17
T:Old McDonald
C:Traditional
R:Polka
M:4/4
L:1/4
K:G
GGGD | EED2 | BBAA | G2 z !fine! || D |
GGGD | EED2 | BBAA | G2 z D/D/ |
GGGE/E/ | GGG2 | G/G/G G/G/G | G/G/ G/G/ GG !D.C.!:|

